Papirus/64x64/apps/Xfwm4CompositeEditor.svg

<?xml version="1.0" encoding="UTF-8" standalone="no"?>
<svg
   id="_图层_1"
   version="1.1"
   viewBox="0 0 64 64" width="64" height="64"
   sodipodi:docname="Xfwm4CompositeEditor.svg"
   xml:space="preserve"
   inkscape:version="1.4 (e7c3feb100, 2024-10-09)"
   xmlns:inkscape="http://www.inkscape.org/namespaces/inkscape"
   xmlns:sodipodi="http://sodipodi.sourceforge.net/DTD/sodipodi-0.dtd"
   xmlns="http://www.w3.org/2000/svg"
   xmlns:svg="http://www.w3.org/2000/svg"><sodipodi:namedview
     id="namedview26"
     pagecolor="#505050"
     bordercolor="#eeeeee"
     borderopacity="1"
     inkscape:showpageshadow="0"
     inkscape:pageopacity="0"
     inkscape:pagecheckerboard="0"
     inkscape:deskcolor="#505050"
     inkscape:zoom="10.6875"
     inkscape:cx="32"
     inkscape:cy="32"
     inkscape:window-width="1920"
     inkscape:window-height="939"
     inkscape:window-x="0"
     inkscape:window-y="34"
     inkscape:window-maximized="1"
     inkscape:current-layer="_图层_1" /><!-- Generator: Adobe Illustrator 29.0.1, SVG Export Plug-In . SVG Version: 2.1.0 Build 192)  --><defs
     id="defs6"><style
       id="style1">
      .st0 {
        fill-opacity: .5;
      }

      .st0, .st1, .st2, .st3, .st4, .st5, .st6, .st7 {
        fill: #fff;
      }

      .st8 {
        fill: #133c9a;
      }

      .st2, .st9 {
        display: none;
      }

      .st3 {
        fill-opacity: .2;
      }

      .st4 {
        fill-opacity: .9;
      }

      .st10 {
        fill: #3370ff;
      }

      .st11 {
        fill: url(#_未命名的渐变_3);
      }

      .st12 {
        fill: url(#_未命名的渐变);
      }

      .st5 {
        fill-opacity: .3;
      }

      .st6 {
        fill-opacity: 0;
      }

      .st7 {
        fill-opacity: .7;
      }

      .st13 {
        fill: #00d6b9;
      }

      .st14 {
        fill: url(#_未命名的渐变_2);
      }
    </style><radialGradient
       id="_未命名的渐变"
       data-name="未命名的渐变"
       cx="123.9"
       cy="-40.2"
       fx="123.9"
       fy="-40.2"
       r="59.4"
       gradientTransform="translate(-26.8 25.5) scale(.6 -.7)"
       gradientUnits="userSpaceOnUse"><stop
         offset="0"
         stop-color="#db202e"
         id="stop1" /><stop
         offset="1"
         stop-color="#e01b24"
         id="stop2" /></radialGradient><radialGradient
       id="_未命名的渐变_2"
       data-name="未命名的渐变 2"
       cx="67.6"
       cy="26.8"
       fx="67.6"
       fy="26.8"
       r="105.2"
       gradientTransform="translate(-26.6 25.3) scale(.6 -.7)"
       gradientUnits="userSpaceOnUse"><stop
         offset="0"
         stop-color="#ffb648"
         id="stop3" /><stop
         offset="1"
         stop-color="#ff7800"
         stop-opacity="0"
         id="stop4" /></radialGradient><radialGradient
       id="_未命名的渐变_3"
       data-name="未命名的渐变 3"
       cx="61.7"
       cy="18.6"
       fx="61.7"
       fy="18.6"
       r="68"
       gradientTransform="translate(-26.8 25.8) scale(.6 -.7)"
       gradientUnits="userSpaceOnUse"><stop
         offset="0"
         stop-color="#c64600"
         id="stop5" /><stop
         offset="1"
         stop-color="#a51d2d"
         id="stop6" /></radialGradient></defs><path
     class="st1"
     d="M47.5,64.1H13.8c-7.6,0-13.8-6.3-13.8-13.8V13.7C0,6.2,6.2,0,13.7,0h36.6c7.5,0,13.7,6.2,13.7,13.7v36.6c0,7.5-6.2,13.7-13.7,13.7h-2.9.1Z"
     id="path6"
     style="fill:#00796b;fill-opacity:1" /><g
     id="g26"
     transform="matrix(1.1403509,0,0,1.1181902,-4.5847953,-4.323638)"><path
       style="opacity:0.2"
       d="m 35.944062,13.0007 c -0.692326,-0.01576 -1.198448,0.232791 -1.652258,0.749976 -0.388214,0.442505 -0.823546,1.236473 -0.964794,1.765566 -0.51814,1.941035 -2.939666,3.189261 -5.077858,2.613195 -1.049144,-0.282657 -1.543848,-0.726338 -3.242018,-2.898341 -0.772936,-0.988622 -1.43582,-0.967467 -3.331858,0.113277 -1.801408,1.027011 -2.020319,1.690953 -1.206968,3.714721 0.33608,0.836528 0.62228,1.90917 0.628874,2.382734 0.0166,1.170846 -1.020612,3.022852 -2.062393,3.691284 -0.853895,0.54788 -2.64387,0.674356 -4.074006,0.289054 -1.359951,-0.366396 -2.054659,0.279162 -2.628769,2.433512 -0.447041,1.67752 -0.447003,1.924926 0.02344,2.460856 0.287427,0.327674 1.224703,0.89875 2.078016,1.265584 0.85336,0.366848 1.792332,0.938462 2.089735,1.277302 0.627893,0.71545 1.03067,2.783282 0.749961,3.867058 -0.203175,0.786936 -1.176934,2.012362 -1.964741,2.47648 -0.858648,0.50585 -1.685844,1.623354 -1.66007,2.242114 0.03303,0.7927 1.16181,2.775756 1.878808,3.300672 0.410657,0.30071 0.753482,0.337536 1.281183,0.14062 1.546673,-0.576914 4.038592,-0.983348 4.788814,-0.781224 1.13105,0.304724 2.742134,1.809092 2.93344,2.746004 0.09002,0.441256 0.0885,1.41154 0,2.156178 -0.214738,1.805956 -0.0398,2.731706 0.582002,3.050682 0.282776,0.14468 0.737036,0.382984 1.007758,0.527326 0.270242,0.14616 0.91823,0.323034 1.441332,0.39061 1.364188,0.17696 2.331714,-0.617406 3.08187,-2.542884 0.685914,-1.760524 0.931064,-2.01122 2.48815,-2.507728 1.581162,-0.504204 2.680262,-0.389408 3.589658,0.374988 0.753994,0.633834 1.046772,0.93818 2.206916,2.265548 0.849982,0.9727 1.525886,1.032198 3.015466,0.253898 2.239758,-1.1704 2.463294,-1.885966 1.3554,-4.210796 -1.054662,-2.212682 -0.477236,-4.432268 1.484296,-5.726376 0.75115,-0.495514 1.326224,-0.578122 3.128744,-0.46092 2.721524,0.177 3.258616,-0.1323 3.827926,-2.238208 0.56873,-2.103304 0.327804,-2.538684 -1.99599,-3.5741 -2.211112,-0.985166 -2.815316,-1.709498 -3.136554,-3.765502 -0.267096,-1.709498 0.15818,-2.555374 2.156134,-4.265484 1.024538,-0.876856 1.60206,-1.560166 1.605388,-1.914 0.0072,-0.789698 -1.797568,-3.63955 -2.410032,-3.80456 -0.283626,-0.07642 -1.142268,0.13234 -1.913962,0.457016 -2.128736,0.895954 -3.268266,0.921848 -4.667726,0.10938 -1.644416,-0.95443 -2.073212,-1.87723 -1.941304,-4.171746 0.151482,-2.635168 -0.06322,-3.17263 -1.48039,-3.734251 -0.472082,-0.187499 -0.88445,-0.325304 -1.253844,-0.410143 l 0.004,-0.0039 c -0.27714,-0.06364 -0.531,-0.100216 -0.761776,-0.105472 z"
       id="path2" /><path
       style="fill:#18c28c"
       d="m 35.944062,12.0007 c -0.692326,-0.01576 -1.198448,0.232791 -1.652258,0.749976 -0.388214,0.442505 -0.823546,1.236473 -0.964794,1.765566 -0.51814,1.941035 -2.939666,3.189261 -5.077858,2.613195 -1.049144,-0.282657 -1.543848,-0.726338 -3.242018,-2.898341 -0.772936,-0.988622 -1.43582,-0.967467 -3.331858,0.113277 -1.801408,1.027011 -2.020319,1.690953 -1.206968,3.714721 0.33608,0.836528 0.62228,1.90917 0.628874,2.382734 0.0166,1.170846 -1.020612,3.022852 -2.062393,3.691284 -0.853895,0.54788 -2.64387,0.674356 -4.074006,0.289054 -1.359951,-0.366396 -2.054659,0.279162 -2.628769,2.433512 -0.447041,1.67752 -0.447003,1.924926 0.02344,2.460856 0.287427,0.327674 1.224703,0.89875 2.078016,1.265584 0.85336,0.366848 1.792332,0.938462 2.089735,1.277302 0.627893,0.71545 1.03067,2.783282 0.749961,3.867058 -0.203175,0.786936 -1.176934,2.012362 -1.964741,2.47648 -0.858648,0.50585 -1.685844,1.623354 -1.66007,2.242114 0.03303,0.7927 1.16181,2.775756 1.878808,3.300672 0.410657,0.30071 0.753482,0.337536 1.281183,0.14062 1.546673,-0.576914 4.038592,-0.983348 4.788814,-0.781224 1.13105,0.304724 2.742134,1.809092 2.93344,2.746004 0.09002,0.441256 0.0885,1.41154 0,2.156178 -0.214738,1.805956 -0.0398,2.731706 0.582002,3.050682 0.282776,0.14468 0.737036,0.382984 1.007758,0.527326 0.270242,0.14616 0.91823,0.323034 1.441332,0.39061 1.364188,0.17696 2.331714,-0.617406 3.08187,-2.542884 0.685914,-1.760524 0.931064,-2.01122 2.48815,-2.507728 1.581162,-0.504204 2.680262,-0.389408 3.589658,0.374988 0.753994,0.633834 1.046772,0.93818 2.206916,2.265548 0.849982,0.9727 1.525886,1.032198 3.015466,0.253898 2.239758,-1.1704 2.463294,-1.885966 1.3554,-4.210796 -1.054662,-2.212682 -0.477236,-4.432268 1.484296,-5.726376 0.75115,-0.495514 1.326224,-0.578122 3.128744,-0.46092 2.721524,0.177 3.258616,-0.1323 3.827926,-2.238208 0.56873,-2.103304 0.327804,-2.538684 -1.99599,-3.5741 -2.211112,-0.985166 -2.815316,-1.709498 -3.136554,-3.765502 -0.267096,-1.709498 0.15818,-2.555374 2.156134,-4.265484 1.024538,-0.876856 1.60206,-1.560166 1.605388,-1.914 0.0072,-0.789698 -1.797568,-3.63955 -2.410032,-3.80456 -0.283626,-0.07642 -1.142268,0.132342 -1.913962,0.457016 -2.128736,0.895954 -3.268266,0.921848 -4.667726,0.10938 -1.644416,-0.95443 -2.073212,-1.87723 -1.941304,-4.171746 0.151482,-2.635168 -0.06322,-3.17263 -1.48039,-3.734251 -0.472082,-0.187499 -0.88445,-0.325304 -1.253844,-0.410143 l 0.004,-0.0039 C 36.428702,12.042532 36.174842,12.005956 35.944066,12.0007 Z"
       id="path3" /><circle
       style="opacity:0.2"
       cx="32"
       cy="32.999001"
       r="8"
       id="circle4" /><circle
       style="fill:#ffffff"
       cx="32"
       cy="32"
       r="8"
       id="circle5" /><path
       style="opacity:0.2;fill:#ffffff"
       d="m 35.943359,12.001953 c -0.692326,-0.01576 -1.198533,0.232815 -1.652343,0.75 -0.388214,0.442505 -0.823596,1.236532 -0.964844,1.765625 -0.51814,1.941035 -2.93798,3.189347 -5.076172,2.613281 -1.049144,-0.282657 -1.544017,-0.726434 -3.242188,-2.898437 -0.772936,-0.988622 -1.435993,-0.967463 -3.332031,0.113281 -1.38754,0.791058 -1.828614,1.371949 -1.589843,2.519531 0.16791,-0.5644 0.670077,-0.995157 1.589843,-1.519531 1.896038,-1.080744 2.559095,-1.101903 3.332031,-0.113281 1.698171,2.172003 2.193044,2.61578 3.242188,2.898437 2.138192,0.576066 4.558032,-0.672246 5.076172,-2.613281 0.141248,-0.529093 0.57663,-1.32312 0.964844,-1.765625 0.45381,-0.517185 0.960017,-0.76576 1.652343,-0.75 0.230776,0.0053 0.484583,0.04183 0.761719,0.105469 l -0.0039,0.0039 c 0.369394,0.08484 0.781824,0.222657 1.253906,0.410156 1.012851,0.401391 1.406375,0.803748 1.496094,1.955078 0.04496,-1.900261 -0.24965,-2.461115 -1.496094,-2.955078 -0.472082,-0.187499 -0.884512,-0.325317 -1.253906,-0.410156 l 0.0039,-0.0039 c -0.277136,-0.06364 -0.530943,-0.100213 -0.761719,-0.105469 z M 39.431641,17.375 c -0.108705,2.202011 0.331558,3.116101 1.945312,4.052734 1.39946,0.812468 2.539233,0.786579 4.667969,-0.109375 0.771694,-0.324674 1.630436,-0.533451 1.914062,-0.457031 0.504561,0.135939 1.80482,2.079772 2.248047,3.207031 0.09731,-0.157863 0.16113,-0.300102 0.16211,-0.404297 0.0072,-0.789698 -1.797693,-3.637724 -2.410157,-3.802734 -0.283626,-0.07642 -1.142368,0.132357 -1.914062,0.457031 -2.128736,0.895954 -3.268509,0.921843 -4.667969,0.109375 C 40.034119,19.648345 39.509858,18.876387 39.431641,17.375 Z m -18.390625,3.601562 c -0.223375,1.138784 -1.111194,2.582211 -2.00586,3.15625 -0.853895,0.54788 -2.644083,0.674365 -4.074218,0.289063 -1.359952,-0.366396 -2.054797,0.279244 -2.628907,2.433594 -0.323673,1.214584 -0.409782,1.679376 -0.255859,2.046875 0.05534,-0.273768 0.138998,-0.606401 0.255859,-1.044922 0.57411,-2.15435 1.268955,-2.79999 2.628907,-2.433594 1.430135,0.385302 3.220323,0.258818 4.074218,-0.289062 1.041781,-0.668432 2.0791,-2.520561 2.0625,-3.691407 -0.0017,-0.120667 -0.02245,-0.282155 -0.05664,-0.466797 z M 46.576172,29.5625 c -0.05567,0.385244 -0.04448,0.798481 0.03125,1.283203 0.321238,2.056004 0.925607,2.780459 3.136719,3.765625 1.381212,0.615429 2.014532,1.023707 2.191406,1.691406 0.231653,-1.365151 -0.240671,-1.824167 -2.191406,-2.693359 -2.211112,-0.985166 -2.815481,-1.709621 -3.136719,-3.765625 -0.01556,-0.09959 -0.02056,-0.187177 -0.03125,-0.28125 z m -29.251953,5.857422 c -0.01431,0.105856 -0.02673,0.213767 -0.05078,0.30664 -0.203176,0.786936 -1.177037,2.012445 -1.964844,2.476563 -0.858648,0.50585 -1.68593,1.623427 -1.660156,2.242187 0.0056,0.134679 0.0518,0.311544 0.113281,0.501954 0.250328,-0.606961 0.887588,-1.355739 1.546875,-1.744141 0.787807,-0.464118 1.761668,-1.689627 1.964844,-2.476563 0.09213,-0.355702 0.08969,-0.821537 0.05078,-1.30664 z m 25.492187,8.572266 c -0.08952,0.833719 0.05692,1.724487 0.482422,2.617187 0.291611,0.611923 0.483486,1.108575 0.578125,1.535156 0.195367,-0.615161 -0.02525,-1.374993 -0.578125,-2.535156 -0.258953,-0.543284 -0.416582,-1.086872 -0.482422,-1.617187 z m -18.25,3.376953 c -0.01113,0.217468 -0.01144,0.439092 -0.03516,0.638671 -0.08406,0.706961 -0.08958,1.243671 -0.05078,1.697266 0.01456,-0.227078 0.01942,-0.433482 0.05078,-0.697266 0.06476,-0.544924 0.06534,-1.147823 0.03516,-1.638671 z"
       id="path5" /></g></svg>

<svg xmlns="http://www.w3.org/2000/svg" width="64" height="64" version="1">
 <circle style="opacity:0.2" cx="32" cy="33" r="28"/>
 <circle style="fill:#00796b" cx="32" cy="32" r="28"/>
 <path style="opacity:0.2" d="m 35.944062,13.0007 c -0.692326,-0.01576 -1.198448,0.232791 -1.652258,0.749976 -0.388214,0.442505 -0.823546,1.236473 -0.964794,1.765566 -0.51814,1.941035 -2.939666,3.189261 -5.077858,2.613195 -1.049144,-0.282657 -1.543848,-0.726338 -3.242018,-2.898341 -0.772936,-0.988622 -1.43582,-0.967467 -3.331858,0.113277 -1.801408,1.027011 -2.020319,1.690953 -1.206968,3.714721 0.33608,0.836528 0.62228,1.90917 0.628874,2.382734 0.0166,1.170846 -1.020612,3.022852 -2.062393,3.691284 -0.853895,0.54788 -2.64387,0.674356 -4.074006,0.289054 -1.359951,-0.366396 -2.054659,0.279162 -2.628769,2.433512 -0.447041,1.67752 -0.447003,1.924926 0.02344,2.460856 0.287427,0.327674 1.224703,0.89875 2.078016,1.265584 0.85336,0.366848 1.792332,0.938462 2.089735,1.277302 0.627893,0.71545 1.03067,2.783282 0.749961,3.867058 -0.203175,0.786936 -1.176934,2.012362 -1.964741,2.47648 -0.858648,0.50585 -1.685844,1.623354 -1.66007,2.242114 0.03303,0.7927 1.16181,2.775756 1.878808,3.300672 0.410657,0.30071 0.753482,0.337536 1.281183,0.14062 1.546673,-0.576914 4.038592,-0.983348 4.788814,-0.781224 1.13105,0.304724 2.742134,1.809092 2.93344,2.746004 0.09002,0.441256 0.0885,1.41154 0,2.156178 -0.214738,1.805956 -0.0398,2.731706 0.582002,3.050682 0.282776,0.14468 0.737036,0.382984 1.007758,0.527326 0.270242,0.14616 0.91823,0.323034 1.441332,0.39061 1.364188,0.17696 2.331714,-0.617406 3.08187,-2.542884 0.685914,-1.760524 0.931064,-2.01122 2.48815,-2.507728 1.581162,-0.504204 2.680262,-0.389408 3.589658,0.374988 0.753994,0.633834 1.046772,0.93818 2.206916,2.265548 0.849982,0.9727 1.525886,1.032198 3.015466,0.253898 2.239758,-1.1704 2.463294,-1.885966 1.3554,-4.210796 -1.054662,-2.212682 -0.477236,-4.432268 1.484296,-5.726376 0.75115,-0.495514 1.326224,-0.578122 3.128744,-0.46092 2.721524,0.177 3.258616,-0.1323 3.827926,-2.238208 0.56873,-2.103304 0.327804,-2.538684 -1.99599,-3.5741 -2.211112,-0.985166 -2.815316,-1.709498 -3.136554,-3.765502 -0.267096,-1.709498 0.15818,-2.555374 2.156134,-4.265484 1.024538,-0.876856 1.60206,-1.560166 1.605388,-1.914 0.0072,-0.789698 -1.797568,-3.63955 -2.410032,-3.80456 -0.283626,-0.07642 -1.142268,0.13234 -1.913962,0.457016 -2.128736,0.895954 -3.268266,0.921848 -4.667726,0.10938 -1.644416,-0.95443 -2.073212,-1.87723 -1.941304,-4.171746 0.151482,-2.635168 -0.06322,-3.17263 -1.48039,-3.734251 -0.472082,-0.187499 -0.88445,-0.325304 -1.253844,-0.410143 l 0.004,-0.0039 c -0.27714,-0.06364 -0.531,-0.100216 -0.761776,-0.105472 z"/>
 <path style="fill:#18c28c" d="m 35.944062,12.0007 c -0.692326,-0.01576 -1.198448,0.232791 -1.652258,0.749976 -0.388214,0.442505 -0.823546,1.236473 -0.964794,1.765566 -0.51814,1.941035 -2.939666,3.189261 -5.077858,2.613195 -1.049144,-0.282657 -1.543848,-0.726338 -3.242018,-2.898341 -0.772936,-0.988622 -1.43582,-0.967467 -3.331858,0.113277 -1.801408,1.027011 -2.020319,1.690953 -1.206968,3.714721 0.33608,0.836528 0.62228,1.90917 0.628874,2.382734 0.0166,1.170846 -1.020612,3.022852 -2.062393,3.691284 -0.853895,0.54788 -2.64387,0.674356 -4.074006,0.289054 -1.359951,-0.366396 -2.054659,0.279162 -2.628769,2.433512 -0.447041,1.67752 -0.447003,1.924926 0.02344,2.460856 0.287427,0.327674 1.224703,0.89875 2.078016,1.265584 0.85336,0.366848 1.792332,0.938462 2.089735,1.277302 0.627893,0.71545 1.03067,2.783282 0.749961,3.867058 -0.203175,0.786936 -1.176934,2.012362 -1.964741,2.47648 -0.858648,0.50585 -1.685844,1.623354 -1.66007,2.242114 0.03303,0.7927 1.16181,2.775756 1.878808,3.300672 0.410657,0.30071 0.753482,0.337536 1.281183,0.14062 1.546673,-0.576914 4.038592,-0.983348 4.788814,-0.781224 1.13105,0.304724 2.742134,1.809092 2.93344,2.746004 0.09002,0.441256 0.0885,1.41154 0,2.156178 -0.214738,1.805956 -0.0398,2.731706 0.582002,3.050682 0.282776,0.14468 0.737036,0.382984 1.007758,0.527326 0.270242,0.14616 0.91823,0.323034 1.441332,0.39061 1.364188,0.17696 2.331714,-0.617406 3.08187,-2.542884 0.685914,-1.760524 0.931064,-2.01122 2.48815,-2.507728 1.581162,-0.504204 2.680262,-0.389408 3.589658,0.374988 0.753994,0.633834 1.046772,0.93818 2.206916,2.265548 0.849982,0.9727 1.525886,1.032198 3.015466,0.253898 2.239758,-1.1704 2.463294,-1.885966 1.3554,-4.210796 -1.054662,-2.212682 -0.477236,-4.432268 1.484296,-5.726376 0.75115,-0.495514 1.326224,-0.578122 3.128744,-0.46092 2.721524,0.177 3.258616,-0.1323 3.827926,-2.238208 0.56873,-2.103304 0.327804,-2.538684 -1.99599,-3.5741 -2.211112,-0.985166 -2.815316,-1.709498 -3.136554,-3.765502 -0.267096,-1.709498 0.15818,-2.555374 2.156134,-4.265484 1.024538,-0.876856 1.60206,-1.560166 1.605388,-1.914 0.0072,-0.789698 -1.797568,-3.63955 -2.410032,-3.80456 -0.283626,-0.07642 -1.142268,0.132342 -1.913962,0.457016 -2.128736,0.895954 -3.268266,0.921848 -4.667726,0.10938 -1.644416,-0.95443 -2.073212,-1.87723 -1.941304,-4.171746 0.151482,-2.635168 -0.06322,-3.17263 -1.48039,-3.734251 -0.472082,-0.187499 -0.88445,-0.325304 -1.253844,-0.410143 l 0.004,-0.0039 C 36.428702,12.042532 36.174842,12.005956 35.944066,12.0007 Z"/>
 <path style="opacity:0.1;fill:#ffffff" d="M 32 4 A 28 28 0 0 0 4 32 A 28 28 0 0 0 4.0175781 32.492188 A 28 28 0 0 1 32 5 A 28 28 0 0 1 59.974609 32.492188 A 28 28 0 0 0 60 32 A 28 28 0 0 0 32 4 z"/>
 <circle style="opacity:0.2" cx="32" cy="32.999" r="8"/>
 <circle style="fill:#ffffff" cx="32" cy="32" r="8"/>
 <path style="opacity:0.2;fill:#ffffff" d="M 35.943359 12.001953 C 35.251033 11.986193 34.744826 12.234768 34.291016 12.751953 C 33.902802 13.194458 33.46742 13.988485 33.326172 14.517578 C 32.808032 16.458613 30.388192 17.706925 28.25 17.130859 C 27.200856 16.848202 26.705983 16.404425 25.007812 14.232422 C 24.234876 13.2438 23.571819 13.264959 21.675781 14.345703 C 20.288241 15.136761 19.847167 15.717652 20.085938 16.865234 C 20.253848 16.300834 20.756015 15.870077 21.675781 15.345703 C 23.571819 14.264959 24.234876 14.2438 25.007812 15.232422 C 26.705983 17.404425 27.200856 17.848202 28.25 18.130859 C 30.388192 18.706925 32.808032 17.458613 33.326172 15.517578 C 33.46742 14.988485 33.902802 14.194458 34.291016 13.751953 C 34.744826 13.234768 35.251033 12.986193 35.943359 13.001953 C 36.174135 13.007209 36.427942 13.043782 36.705078 13.107422 L 36.701172 13.111328 C 37.070566 13.196167 37.482996 13.333985 37.955078 13.521484 C 38.967929 13.922875 39.361453 14.325232 39.451172 15.476562 C 39.496131 13.576301 39.201522 13.015447 37.955078 12.521484 C 37.482996 12.333985 37.070566 12.196167 36.701172 12.111328 L 36.705078 12.107422 C 36.427942 12.043782 36.174135 12.007209 35.943359 12.001953 z M 39.431641 17.375 C 39.322936 19.577011 39.763199 20.491101 41.376953 21.427734 C 42.776413 22.240202 43.916186 22.214313 46.044922 21.318359 C 46.816616 20.993685 47.675358 20.784908 47.958984 20.861328 C 48.463545 20.997267 49.763804 22.9411 50.207031 24.068359 C 50.304345 23.910496 50.368161 23.768257 50.369141 23.664062 C 50.376341 22.874364 48.571448 20.026338 47.958984 19.861328 C 47.675358 19.784908 46.816616 19.993685 46.044922 20.318359 C 43.916186 21.214313 42.776413 21.240202 41.376953 20.427734 C 40.034119 19.648345 39.509858 18.876387 39.431641 17.375 z M 21.041016 20.976562 C 20.817641 22.115346 19.929822 23.558773 19.035156 24.132812 C 18.181261 24.680692 16.391073 24.807177 14.960938 24.421875 C 13.600986 24.055479 12.906141 24.701119 12.332031 26.855469 C 12.008358 28.070053 11.922249 28.534845 12.076172 28.902344 C 12.131514 28.628576 12.21517 28.295943 12.332031 27.857422 C 12.906141 25.703072 13.600986 25.057432 14.960938 25.423828 C 16.391073 25.80913 18.181261 25.682646 19.035156 25.134766 C 20.076937 24.466334 21.114256 22.614205 21.097656 21.443359 C 21.095976 21.322692 21.075203 21.161204 21.041016 20.976562 z M 46.576172 29.5625 C 46.520506 29.947744 46.531688 30.360981 46.607422 30.845703 C 46.92866 32.901707 47.533029 33.626162 49.744141 34.611328 C 51.125353 35.226757 51.758673 35.635035 51.935547 36.302734 C 52.1672 34.937583 51.694876 34.478567 49.744141 33.609375 C 47.533029 32.624209 46.92866 31.899754 46.607422 29.84375 C 46.591861 29.744156 46.586859 29.656573 46.576172 29.5625 z M 17.324219 35.419922 C 17.309914 35.525778 17.297493 35.633689 17.273438 35.726562 C 17.070262 36.513498 16.096401 37.739007 15.308594 38.203125 C 14.449946 38.708975 13.622664 39.826552 13.648438 40.445312 C 13.654049 40.579991 13.700242 40.756856 13.761719 40.947266 C 14.012047 40.340305 14.649307 39.591527 15.308594 39.203125 C 16.096401 38.739007 17.070262 37.513498 17.273438 36.726562 C 17.365568 36.37086 17.363132 35.905025 17.324219 35.419922 z M 42.816406 43.992188 C 42.726883 44.825907 42.873328 45.716675 43.298828 46.609375 C 43.590439 47.221298 43.782314 47.71795 43.876953 48.144531 C 44.07232 47.52937 43.851702 46.769538 43.298828 45.609375 C 43.039875 45.066091 42.882246 44.522503 42.816406 43.992188 z M 24.566406 47.369141 C 24.555271 47.586609 24.55497 47.808233 24.53125 48.007812 C 24.447189 48.714773 24.441671 49.251483 24.480469 49.705078 C 24.495029 49.478 24.499885 49.271596 24.53125 49.007812 C 24.596014 48.462888 24.59659 47.859989 24.566406 47.369141 z"/>
</svg>
